!!!COM:	la Rue, Pierre de
!!!CDT:	~1452///-1518/11/20
!!!OPR:	Missa Tandernaken
!!!ONM:	5
!!!OTL:	Agnus Dei
!!!AGN:	Mass; Agnus Dei
!!!SCT:	Rue1030e
!!!SCA:	Rue1030e
!!!voices-OPR:	4
!!!voices:	4
**kern	**kern	**kern	**kern
*staff4	*staff3	*staff2	*staff1
*Ivox	*Ivox	*Ivox	*Ivox
*I"Bassus	*I"Tenor	*I"Contra	*I"Discantus
*I'B	*I'T	*I'C	*I'D
*>[A,B,C]	*>[A,B,C]	*>[A,B,C]	*>[A,B,C]
*>A	*>A	*>A	*>A
*clefF4	*clefGv2	*clefGv2	*clefG2
*k[b-]	*k[]	*k[]	*k[]
*M3/1	*M3/1	*M3/1	*M3/1
*met(O)	*met(O)	*met(O)	*met(O)
!!section: Agnus Dei I
!!!OMD: Agnus Dei I
=1-	=1-	=1-	=1-
0D	0.r	1r	0.r
.	.	1r	.
1F	.	1A	.
=2	=2	=2	=2
1G	0.r	1B-i	0.r
2F\	.	2A/	.
1G	.	1B-i	.
4F\	.	4A/	.
4E\	.	4G/	.
=3	=3	=3	=3
2.D\	0.r	2F/	1r
.	.	2B-i\	.
4BB-/	.	.	.
4C/	.	2A/	1r
4BB-/	.	.	.
4AA/	.	1G	.
4GG/	.	.	.
1AA	.	.	1a
.	.	2F#i/	.
=4	=4	=4	=4
1GG	0d	1G	2.b-i\
.	.	.	4a/
2r	.	2F/	2a/
2.GG/	.	1G	1b-i
.	1d	.	.
4AA/	.	.	.
4BB-/	.	4F/	4a/
4C/	.	4E/	4g/
=5	=5	=5	=5
2.D\	0d	2D/	2f/
.	.	2.d\	2b-i\
4E\	.	.	.
2F\	.	.	2a/
.	.	4c\	.
2G\	.	4B-i\	1g
.	.	4G/	.
1D	1d	1A	.
.	.	.	2f/
=6	=6	=6	=6
2r	0G	1B-i	2g/
2.G\	.	.	2d/
.	.	2r	2e/
4F\	.	.	.
4E\	.	1d	1g
4D\	.	.	.
1E	1G	.	.
.	.	2c\	4f/
.	.	.	4e/
=7	=7	=7	=7
2.D\	0d	2B-i\	4f/
.	.	.	4d/
.	.	1A	4f/
4E\	.	.	4g/
2F\	.	.	2a/
2G\	.	2d\	2b\
2C/	1c	2e\	2cc\
2F\	.	2f\	[2a/
=8	=8	=8	=8
1G	1B	2e\	2a/]
.	.	4d\	1g
.	.	4c\	.
0D	0A	1d	.
.	.	.	4f#i/
.	.	.	4e/
.	.	2r	1f#i
.	.	2d\	.
=9	=9	=9	=9
2r	0.G	2d\	0g
2G\	.	2d\	.
2G\	.	2B\	.
2G\	.	1G	.
2E\	.	.	2r
2C/	.	[2c\	2g/
=10	=10	=10	=10
1GG	1r	2c\]	2g/
.	.	2B\	2g/
0C	1r	4c\	2e/
.	.	4A/	.
.	.	4c\	2c/
.	.	4d\	.
.	1G	2e\	1g
.	.	4f\	.
.	.	4e\	.
=11	=11	=11	=11
0FF	0F	2f\	2a/
.	.	4e\	2.cc\
.	.	4d\	.
.	.	1c	.
.	.	.	4b\
.	.	.	4a/
.	.	.	4g/
1r	1F	2r	2f/
.	.	2c\	2e/
=12	=12	=12	=12
0.r	0F	2d\	2d/
.	.	1A	2c/
.	.	.	2r
.	.	2d\	2.f/
.	1F	1c	.
.	.	.	4g/
.	.	.	2a/
=13	=13	=13	=13
0.r	0G	1B-i	0b-
.	.	2r	.
.	.	1d	.
.	1F	.	1a
.	.	4c\	.
.	.	4d\	.
=14	=14	=14	=14
1r	1E	2e\	1g
.	.	2c\	.
1r	0D	4d\	2f/
.	.	4c\	.
.	.	4B-i\	1f
.	.	4A/	.
1F	.	2B-i\	.
.	.	4c\	4e/
.	.	4B-i\	4d/
=15	=15	=15	=15
1G	0.C	1c	0.e
2G\	.	1r	.
1A	.	.	.
.	.	2.A/	.
4G\	.	.	.
4F\	.	4B-i\	.
=16	=16	=16	=16
4E\	1r	4c\	1r
4F\	.	4d\	.
4G\	.	4e\	.
4A\	.	4f\	.
4B-\	1r	2g\	1r
4A\	.	.	.
4G\	.	1f	.
4F\	.	.	.
1G	1C	.	1g
.	.	2e\	.
=17	=17	=17	=17
1F	0F	0f	1.a
1r	.	.	.
.	.	.	4g/
.	.	.	4f/
1r	1F	1r	2a/
.	.	.	2b\
=18	=18	=18	=18
0F	0A	1.f	2.cc\
.	.	.	4b\
.	.	.	2cc\
.	.	4e\	1a
.	.	4d\	.
1F	1A	2c\	.
.	.	2d\	4g/
.	.	.	4f/
=19	=19	=19	=19
0C	0c	2e\	2e/
.	.	1c	1g
.	.	4B\	1f
.	.	4A/	.
1C	1c	1G	.
.	.	.	2e/
=20	=20	=20	=20
0D	0A	0.F	1.f
.	.	.	2g/
1D	1A	.	1a
=21	=21	=21	=21
0BB-	0d	0f	0b-i
1C	1c	1e	2a/
.	.	.	[2g/
=22	=22	=22	=22
1D	1A	0d	4g/]
.	.	.	4f/
.	.	.	2f/
0GG	0B-i	.	2g/
.	.	.	4f/
.	.	.	4e/
.	.	1r	1d
=23	=23	=23	=23
2r	[0.Al	2r	2c/
1D	.	2d\	1f
.	.	2d\	.
2AA/	.	2c\	2e/
1D	.	1f	1d
=24	=24	=24	=24
0.AAl	0.A]	0.el	0.cl
!!LO:LB:i:g=z
=25||	=25||	=25||	=25||
*>B	*>B	*>B	*>B
*clefF4	*clefGv2	*clefGv2	*clefG2
*k[b-]	*k[]	*k[]	*k[]
*M2/1	*M2/1	*M2/1	*M2/1
*met(C2)	*met(C2)	*met(C2)	*met(C2)
!!section: Agnus Dei II
!!!OMD: Agnus Dei II
0r	0r	0d	0f
=26.	=26.	=26.	=26.
0r	0r	1d	1f
.	.	1c	1e
=27	=27	=27	=27
0r	0r	1d	1f
.	.	1B	1g
=28.	=28.	=28.	=28.
0r	0r	0A	1a
.	.	.	[1a
=29	=29	=29	=29
0r	0r	1r	2a/]
.	.	.	4g/
.	.	.	4f/
.	.	1e	4g/
.	.	.	4f/
.	.	.	4e/
.	.	.	4d/
=30.	=30.	=30.	=30.
0r	0r	1.e	2c/
.	.	.	4e/
.	.	.	4f/
.	.	.	4g/
.	.	.	4a/
.	.	4d\	[2b\
.	.	4c\	.
=31	=31	=31	=31
0r	0r	4d\	2b\]
.	.	4c\	.
.	.	4B\	1a
.	.	4A/	.
.	.	1B	.
.	.	.	2g#i/
=32.	=32.	=32.	=32.
0r	0r	2A/	1a
.	.	2c\	.
.	.	2d\	2f/
.	.	[2e\	[2g/
=33	=33	=33	=33
0r	0r	2e\]	4g/]
.	.	.	4f/
.	.	1d	4e/
.	.	.	4d/
.	.	.	1e
.	.	2c#i\	.
=34.	=34.	=34.	=34.
0r	0r	[0d	0d
=35	=35	=35	=35
0r	0r	0d]	1r
.	.	.	1d
=36.	=36.	=36.	=36.
0r	0r	1r	1.f
.	.	1d	.
.	.	.	4e/
.	.	.	4d/
=37	=37	=37	=37
0r	0r	1A	2f/
.	.	.	4e/
.	.	.	4d/
.	.	1A	1c
=38.	=38.	=38.	=38.
0r	0r	1.c	1.e
.	.	4B\	4d/
.	.	4A/	4c/
=39	=39	=39	=39
0r	0r	2c\	2e/
.	.	4B\	2f/
.	.	4A/	.
.	.	1G	[1g
=40.	=40.	=40.	=40.
0r	0r	1.B	2g/]
.	.	.	4f/
.	.	.	4e/
.	.	.	[1d
.	.	4A/	.
.	.	4G/	.
=41	=41	=41	=41
0r	0r	2B\	2d/]
.	.	2c\	2e/
.	.	1d	2f/
.	.	.	2g/
=42.	=42.	=42.	=42.
0r	0r	1.A	2a/
.	.	.	4g/
.	.	.	4f/
.	.	.	1e
.	.	2B\	.
=43	=43	=43	=43
0r	0r	2c\	2r
.	.	2d\	2b\
.	.	2.e\	2cc\
.	.	.	4b\
.	.	8d\L	4a/
.	.	8c\J	.
=44.	=44.	=44.	=44.
0r	0r	2.B\	2.g/
.	.	4A/	4f/
.	.	4B\	4g/
.	.	4c\	4a/
.	.	2d\	2b\
=45	=45	=45	=45
0r	0r	2A/	2cc\
.	.	2c\	2.a/
.	.	1B	.
.	.	.	4g#i/
.	.	.	2g#i/
=46.	=46.	=46.	=46.
0r	0r	2r	1.a
.	.	1A	.
.	.	2B\	2g/
=47	=47	=47	=47
0r	0r	2c\	2e/
.	.	2.d\	2.f/
.	.	4c\	4e/
.	.	4B\	[2g/
.	.	4A/	.
=48.	=48.	=48.	=48.
0r	0r	2G/	2g/]
.	.	1c	4f/
.	.	.	4e/
.	.	.	1d
.	.	2B\	.
=49	=49	=49	=49
0r	0r	0c	1c
.	.	.	2r
.	.	.	2e/
=50.	=50.	=50.	=50.
0r	0r	2r	1f
.	.	2A/	.
.	.	2B\	2g/
.	.	2c\	[2a/
=51	=51	=51	=51
0r	0r	2.d\	4a/]
.	.	.	4g/
.	.	.	4f/
.	.	4c\	4e/
.	.	4B\	2d/
.	.	4A/	.
.	.	2G/	2e/
=52.	=52.	=52.	=52.
0r	0r	2A/	2c/
.	.	2F/	1f
.	.	1G	.
.	.	.	2e/
=53	=53	=53	=53
0r	0r	1F	0f
.	.	2r	.
.	.	2A/	.
=54.	=54.	=54.	=54.
0r	0r	2.A/	2r
.	.	.	2a/
.	.	4B\	.
.	.	2c\	[1a
.	.	[2d\	.
=55	=55	=55	=55
0r	0r	4d\]	2a/]
.	.	4c\	.
.	.	4A/	4g/
.	.	4B\	4f/
.	.	4c\	2e/
.	.	4B\	.
.	.	[2d\	[2f/
=56.	=56.	=56.	=56.
0r	0r	4d\]	4f/]
.	.	4c\	4e/
.	.	4c\	4e/
.	.	4B\	4d/
.	.	2A/	2c/
.	.	[2B-i\	[2g/
=57	=57	=57	=57
0r	0r	4B-\]	4g/]
.	.	4A/	4f/
.	.	4G/	4e/
.	.	4F/	4d/
.	.	4G/	4e/
.	.	4F/	4d/
.	.	[2A/	2f/
=58.	=58.	=58.	=58.
0r	0r	4A/]	4e/
.	.	4G/	4d/
.	.	2F/	1d
.	.	1E	.
.	.	.	2c#i/
=59	=59	=59	=59
0r	0r	0Dl	0dl
!!LO:LB:i:g=z
=60||	=60||	=60||	=60||
*>C	*>C	*>C	*>C
*clefF4	*clefGv2	*clefGv2	*clefG2
*k[b-]	*k[]	*k[]	*k[]
*M3/1	*M3/1	*M3/1	*M3/1
*met(3)	*met(3)	*met(3)	*met(3)
!!section: Agnus Dei III
!!!OMD: Agnus Dei III
1r	1r	1r	1r
1r	1r	1r	1r
1D	1F	1d	1a
=61	=61	=61	=61
0D	0F	1.f	0a
.	.	2e\	.
1D	1F	1d	1a
=62	=62	=62	=62
[0.AA	0A	1.c	0cc
.	.	2A/	.
.	1A	2c\	1cc
.	.	2d\	.
=63	=63	=63	=63
0AA]	0c	0e	1.a
.	.	.	2g/
1AA	1c	1c	1e
=64	=64	=64	=64
1.D	0A	1.d	1.f
2E\	.	2c\	2g/
1F	1A	1A	1a
=65	=65	=65	=65
1D	0d	1B-i	1f
1BB-	.	1G	1.b-i
[1F	1c	1A	.
.	.	.	2a/
=66	=66	=66	=66
1F]	1A	0d	1.a
0G	0B-	.	.
.	.	.	2g/
.	.	1d	1g
=67	=67	=67	=67
0D	0.A	1.f	1a
.	.	.	1r
.	.	2e\	.
1r	.	1c	1a
=68	=68	=68	=68
0D	0.r	0d	0f
1D	.	2c\	1f
.	.	2B\	.
=69	=69	=69	=69
1.D	1r	0A	1.f
.	1r	.	.
2E\	.	.	2g/
2F\	1A	1r	2a/
2G\	.	.	2b\
=70	=70	=70	=70
0A	0F	1r	0cc
.	.	1r	.
1A	1F	1f	1cc
=71	=71	=71	=71
1.D	0F	1.f	1.a
2E\	.	2e\	2g/
1F	1F	1d	1f
=72	=72	=72	=72
1.C	0c	0e	1e
.	.	.	1.g
2D\	.	.	.
1E	1B	1e	.
.	.	.	2f/
=73	=73	=73	=73
1F	1A	0c	1.f
0C	0G	.	.
.	.	.	2e/
.	.	1c	1e
=74	=74	=74	=74
1D	0.F	1A	0.f
1.F	.	1.d	.
2E\	.	2c\	.
=75	=75	=75	=75
1E	1r	1.c	1r
0D	1r	.	1r
.	.	2B\	.
.	1F	1B	1f
=76	=76	=76	=76
[0.C	0G	0.c	1e
.	.	.	0g
.	1G	.	.
=77	=77	=77	=77
1C]	0G	0.r	2f/
.	.	.	2e/
0BB-	.	.	1.d
.	1G	.	.
.	.	.	2c/
=78	=78	=78	=78
0AA	0A	0c	2c/
.	.	.	2d/
.	.	.	2e/
.	.	.	2f/
1C	1A	1c	1e
=79	=79	=79	=79
1D	1F	1B	1.d
0AA	0E	0A	.
.	.	.	2c#i/
.	.	.	1c#i
=80	=80	=80	=80
1r	0D	2A/	0d
.	.	2B\	.
1r	.	2c\	.
.	.	2d\	.
1A	1r	1e	1r
=81	=81	=81	=81
0A	0.r	1f	0.r
.	.	1.e	.
1F	.	.	.
.	.	2d\	.
=82	=82	=82	=82
1D	0.r	1.d	0.r
1.E	.	.	.
.	.	2c#i\	.
.	.	1c#i	.
2D\	.	.	.
=83	=83	=83	=83
0D	1r	0.d	2d/
.	.	.	2e/
.	1r	.	2f/
.	.	.	2g/
1D	1d	.	1a
=84	=84	=84	=84
0GG	0d	0.r	0b-i
1r	1c	.	1a
=85	=85	=85	=85
1r	1A	1r	1f
1r	0B-i	1r	1.g
1G	.	1d	.
.	.	.	2f/
=86	=86	=86	=86
1F	0.A	1.d	1a
0D	.	.	1.f
.	.	2c\	.
.	.	1A	.
.	.	.	2e/
=87	=87	=87	=87
1GG	0.r	1B-i	1g
1.C	.	0G	1.e
2BB-/	.	.	2d/
=88	=88	=88	=88
1D	1r	1F	1f
1AA	1r	1.c	1.e
1C	1G	.	.
.	.	2B\	2d/
=89	=89	=89	=89
1GG	0G	1d	1B
1C	.	1c	1.e
1D	1F	2B\	.
.	.	[2A/	2d/
=90	=90	=90	=90
1BB-	1D	2A/]	0d
.	.	2G/	.
0AA	0E	0A	.
.	.	.	1c#i
=91	=91	=91	=91
0.Dl	0.Dl	0.Al	0.dl
==	==	==	==
*-	*-	*-	*-
!!!RDF**kern: l=long note in original notation
!!!RDF**kern: i=editorial accidental
!!!ENC:	Chris Gage 05-24-2013
!!!END:	2013/08/04/
!!!EED:	Jesse Rodin
!!!EEV:	2013/08/05/
!!!ONB:	Translated from MusicXML and edited on 2013/08/05/ by Craig Sapp
!!muse2ps: T^@{OPR}^u^@{ONM}{. }@{OTL}^C^@{COM}^i2I150v85,85,85,150Q16
